img/company/walraven.svg

<svg width="143" height="26" viewBox="0 0 143 26" fill="none" xmlns="http://www.w3.org/2000/svg">
<path d="M137.405 25.5241V13.4281C137.405 11.8729 136.49 10.9369 134.816 10.9369C134.09 10.9313 133.369 11.0607 132.689 11.3185V25.5241H127.073V7.82644C129.52 6.89333 132.118 6.43657 134.731 6.48003C140.483 6.48003 143 8.72644 143 12.7657V25.5241H137.405ZM123.959 16.9489L112.521 18.4753C112.968 20.5129 114.705 21.5137 116.981 21.5137C118.768 21.5197 120.534 21.1315 122.158 20.3761L123.725 24.5953C121.444 25.5287 119.001 25.9866 116.542 25.9417C110.159 25.9417 107.039 21.7297 107.039 16.2001C107.039 10.4977 110.308 6.48723 115.825 6.48723C121.172 6.48723 124.03 10.0872 124.03 15.2281C124.042 15.8026 124.018 16.3773 123.959 16.9489ZM115.691 10.4689C113.712 10.4689 112.18 11.8513 112.145 14.9257L118.619 14.0977C118.619 11.7649 117.492 10.4904 115.691 10.4904V10.4689ZM103.188 16.6753C102.337 19.5889 101.342 22.5337 100.203 25.5097H93.5297C92.3856 22.6297 91.381 19.7257 90.5158 16.7977C89.6436 13.8673 88.8848 9.50404 88.2324 6.46563H94.0687C94.4729 8.53204 94.9338 11.9449 95.487 13.9537C96.0401 15.9625 96.5862 17.9065 97.2102 19.7929C97.7917 17.8729 98.3283 15.8761 98.82 13.8025C99.3093 11.7361 99.7135 8.37364 100.026 6.46563H105.493C104.805 9.47524 104.032 13.7953 103.188 16.6753ZM79.0844 25.9345C73.2977 25.9345 70.4398 23.7745 70.4398 19.7857C70.4398 14.8465 75.4039 13.7017 80.9565 13.3921V12.6721C80.9565 11.1889 79.9353 10.5121 78.0277 10.5121C76.2411 10.5723 74.4789 10.9525 72.8226 11.6353L71.461 7.83364C73.7824 6.95513 76.2382 6.49935 78.7156 6.48723C83.7151 6.48723 86.2326 8.42404 86.2326 13.3633V24.5953C84.8427 25.3153 82.0131 25.9345 79.0844 25.9345ZM80.9565 16.9489C77.9284 17.0929 75.645 17.4385 75.645 19.6489C75.645 21.1681 76.9073 21.9961 78.9142 21.9961C79.6042 22.0022 80.2916 21.9101 80.9565 21.7225V16.9489ZM66.5608 6.48003C65.2142 6.55921 63.9473 7.15352 63.015 8.14324V6.48723H58.6183V25.5241H64.2348V11.2825C64.8466 11.0616 65.4932 10.9566 66.1424 10.9729C66.8469 10.9684 67.5471 11.0853 68.2131 11.3185L69.1988 6.68883C68.3264 6.54786 67.4442 6.47804 66.5608 6.48003ZM54.7747 25.8481C54.1326 25.9559 53.4824 26.0065 52.8316 25.9993C52.2224 26.0037 51.6149 25.9311 51.0233 25.7833C50.5019 25.6585 50.0162 25.412 49.605 25.0633C49.1748 24.6729 48.8501 24.1771 48.6618 23.6233C48.4215 22.9127 48.3086 22.164 48.3285 21.4129V0H53.9592V19.9081C53.9252 20.3344 54.0191 20.7611 54.2287 21.1321C54.3488 21.2695 54.4999 21.3754 54.6691 21.4406C54.8383 21.5058 55.0205 21.5284 55.2002 21.5065H56.2072V25.5241C55.736 25.6592 55.2578 25.7674 54.7747 25.8481ZM37.6984 25.9345C31.9117 25.9345 29.0539 23.7745 29.0539 19.7857C29.0539 14.8465 34.0179 13.7017 39.5705 13.3921V12.6721C39.5705 11.1889 38.5494 10.5121 36.6488 10.5121C34.8598 10.5716 33.0952 10.9518 31.4366 11.6353L30.075 7.83364C32.3966 6.95586 34.8523 6.5001 37.3296 6.48723C42.2937 6.48723 44.8466 8.42404 44.8466 13.3633V24.5953C43.4567 25.3153 40.6272 25.9345 37.6984 25.9345ZM39.5705 16.9489C36.5425 17.0929 34.2661 17.4385 34.2661 19.6489C34.2661 21.1681 35.5213 21.9961 37.5282 21.9961C38.2186 21.9998 38.906 21.9053 39.5705 21.7153V16.9489ZM25.345 16.6753C24.5366 19.5889 23.6194 22.5337 22.5935 25.5097H16.1544L13.6086 15.1777L11.1975 25.5241H4.6662C3.74431 22.7785 2.87206 19.8985 2.04944 16.8841C1.2481 13.8313 0.560228 9.47524 0 6.48003H5.80084C6.13414 8.58964 6.50999 11.9953 6.9213 13.9393C7.33261 15.8833 7.78646 17.8129 8.27577 19.6993L11.0485 6.48003H16.7217L19.5583 19.7353C20.5441 15.7465 21.3383 10.3752 21.9411 6.48003H27.3732C26.8413 9.47524 26.1463 13.7953 25.345 16.6753Z" fill="#24242E"/>
</svg>

<svg width="143" height="26" fill="none" xmlns="http://www.w3.org/2000/svg"><path d="M137.405 25.524V13.428c0-1.555-.915-2.491-2.589-2.491a5.872 5.872 0 0 0-2.127.382v14.205h-5.616V7.826a20.53 20.53 0 0 1 7.658-1.346c5.752 0 8.269 2.246 8.269 6.286v12.758h-5.595zm-13.446-8.575-11.438 1.526c.447 2.038 2.184 3.039 4.46 3.039a12.174 12.174 0 0 0 5.177-1.138l1.567 4.22a18.09 18.09 0 0 1-7.183 1.346c-6.383 0-9.503-4.212-9.503-9.742 0-5.702 3.269-9.713 8.786-9.713 5.347 0 8.205 3.6 8.205 8.741.012.575-.012 1.15-.071 1.72zm-8.268-6.48c-1.979 0-3.511 1.382-3.546 4.457l6.474-.828c0-2.333-1.127-3.608-2.928-3.608v-.021zm-12.503 6.206a114.656 114.656 0 0 1-2.985 8.835H93.53a101.486 101.486 0 0 1-3.014-8.712c-.872-2.93-1.631-7.294-2.284-10.332h5.837c.404 2.066.865 5.479 1.418 7.488.553 2.008 1.1 3.953 1.723 5.839.582-1.92 1.118-3.917 1.61-5.99.49-2.067.894-5.43 1.206-7.337h5.467c-.688 3.01-1.461 7.33-2.305 10.21zm-24.104 9.26c-5.786 0-8.644-2.16-8.644-6.15 0-4.938 4.964-6.083 10.517-6.393v-.72c0-1.483-1.022-2.16-2.93-2.16-1.786.06-3.548.44-5.204 1.123L71.46 7.834a20.78 20.78 0 0 1 7.255-1.347c5 0 7.517 1.937 7.517 6.876v11.232c-1.39.72-4.22 1.34-7.149 1.34zm1.873-8.986c-3.029.144-5.312.49-5.312 2.7 0 1.52 1.262 2.347 3.27 2.347a7.283 7.283 0 0 0 2.041-.273v-4.774zM66.56 6.48a5.299 5.299 0 0 0-3.546 1.663V6.487h-4.397v19.037h5.617V11.282a5.23 5.23 0 0 1 1.907-.31 6.146 6.146 0 0 1 2.071.347l.986-4.63a16.307 16.307 0 0 0-2.638-.209zM54.775 25.848a11 11 0 0 1-1.943.151 7.244 7.244 0 0 1-1.809-.216 3.426 3.426 0 0 1-1.418-.72 3.439 3.439 0 0 1-.943-1.44 6.375 6.375 0 0 1-.334-2.21V0h5.631v19.908c-.034.426.06.853.27 1.224a1.12 1.12 0 0 0 .971.374h1.007v4.018c-.471.135-.95.243-1.432.324zm-17.077.087c-5.786 0-8.644-2.16-8.644-6.15 0-4.938 4.964-6.083 10.517-6.393v-.72c0-1.483-1.022-2.16-2.922-2.16-1.79.06-3.554.44-5.212 1.123l-1.362-3.801a20.815 20.815 0 0 1 7.255-1.347c4.964 0 7.517 1.937 7.517 6.876v11.232c-1.39.72-4.22 1.34-7.149 1.34zm1.873-8.986c-3.029.144-5.305.49-5.305 2.7 0 1.52 1.255 2.347 3.262 2.347.69.004 1.378-.09 2.043-.28v-4.767zm-14.226-.274a150.936 150.936 0 0 1-2.752 8.835h-6.439L13.61 15.178l-2.412 10.346h-6.53a157.072 157.072 0 0 1-2.618-8.64C1.25 13.831.56 9.475 0 6.48h5.8c.334 2.11.71 5.515 1.121 7.46.412 1.943.865 3.873 1.355 5.76l2.773-13.22h5.673l2.836 13.255c.986-3.989 1.78-9.36 2.383-13.255h5.432c-.532 2.995-1.227 7.315-2.028 10.195z" fill="#24242E"/></svg>
